icon-themes/breeze_svg/cmd/sc_beziereliminatepoints.svg

<svg viewBox="0 0 16 16" xmlns="http://www.w3.org/2000/svg"><path d="m2 5v3h3v-1h1.5v1h3v-1h1.5v1h3v-3h-3v1h-1.5v-1h-3v1h-1.5v-1zm1 1h1v1h-1zm4.5 0h1v1h-1zm4.5 0h1v1h-1z" fill="#4d4d4d"/><path d="m9.8339844 9-.8339844.8339844 1.666016 1.6660156-1.666016 1.666016.8339844.833984 1.6660156-1.666016 1.666016 1.666016.833984-.833984-1.666016-1.666016 1.666016-1.6660156-.833984-.8339844-1.666016 1.666016z" fill="#da4453"/></svg>

<svg xmlns="http://www.w3.org/2000/svg" viewBox="0 0 16 16">
 <path 
     style="fill:#4d4d4d" 
     d="M 2 5 L 2 8 L 5 8 L 5 7 L 6.5 7 L 6.5 8 L 9.5 8 L 9.5 7 L 11 7 L 11 8 L 14 8 L 14 5 L 11 5 L 11 6 L 9.5 6 L 9.5 5 L 6.5 5 L 6.5 6 L 5 6 L 5 5 L 2 5 z M 3 6 L 4 6 L 4 7 L 3 7 L 3 6 z M 7.5 6 L 8.5 6 L 8.5 7 L 7.5 7 L 7.5 6 z M 12 6 L 13 6 L 13 7 L 12 7 L 12 6 z "
     />
 <path 
     style="fill:#da4453" 
     d="M 9.8339844 9 L 9 9.8339844 L 10.666016 11.5 L 9 13.166016 L 9.8339844 14 L 11.5 12.333984 L 13.166016 14 L 14 13.166016 L 12.333984 11.5 L 14 9.8339844 L 13.166016 9 L 11.5 10.666016 L 9.8339844 9 z "
     />
 </svg>
